src/assets/duotone/MonitorMobbile.svg

<svg width="24" height="24" viewBox="0 0 24 24"  xmlns="http://www.w3.org/2000/svg">
<path opacity="0.4" d="M16.7998 2H6.20977C3.88977 2 2.00977 3.88 2.00977 6.19V12.37V12.56C2.00977 14.88 3.88977 16.75 6.19977 16.75H9.79977C10.3498 16.75 10.7998 17.2 10.7998 17.75V18.57C10.7998 19.12 10.3498 19.57 9.79977 19.57H7.54977C7.15977 19.57 6.83977 19.89 6.83977 20.28C6.83977 20.67 7.15977 20.99 7.54977 20.99H15.4798C15.8698 20.99 16.1898 20.67 16.1898 20.28C16.1898 19.89 15.8698 19.57 15.4798 19.57H13.2298C12.6798 19.57 12.2298 19.12 12.2298 18.57V17.75C12.2298 17.2 12.6798 16.75 13.2298 16.75H16.7998C19.1198 16.75 20.9898 14.87 20.9898 12.56V12.37V6.19C20.9898 3.88 19.1098 2 16.7998 2Z" />
<path d="M19.6402 9.5H14.3502C12.6202 9.5 11.9902 10.13 11.9902 11.88V19.61C11.9902 21.37 12.6102 21.99 14.3502 21.99H19.6402C21.3702 21.99 22.0002 21.36 22.0002 19.61V11.88C22.0002 10.12 21.3802 9.5 19.6402 9.5ZM17.0002 20.32C16.3902 20.32 15.9002 19.83 15.9002 19.22C15.9002 18.61 16.3902 18.12 17.0002 18.12C17.6102 18.12 18.1002 18.61 18.1002 19.22C18.1002 19.83 17.6102 20.32 17.0002 20.32Z" />
<path opacity="0.4" d="M18.0999 19.2201C18.0999 19.8301 17.6099 20.3201 16.9999 20.3201C16.3899 20.3201 15.8999 19.8301 15.8999 19.2201C15.8999 18.6101 16.3899 18.1201 16.9999 18.1201C17.6099 18.1201 18.0999 18.6201 18.0999 19.2201Z" />
</svg>

<?xml version="1.0" encoding="UTF-8"?>
<svg width="24" height="24" viewBox="0 0 24 24" xmlns="http://www.w3.org/2000/svg">
 <path d="m16.8 2h-10.59c-2.32 0-4.2 1.88-4.2 4.19v6.37c0 2.32 1.88 4.19 4.19 4.19h3.6c0.55003 0 1 0.45 1 1v0.82c0 0.55-0.45 1-1 1h-2.25c-0.39 0-0.71 0.32-0.71 0.71s0.32 0.71 0.71 0.71h7.93c0.39 0 0.71-0.32 0.71-0.71s-0.32-0.71-0.71-0.71h-2.25c-0.55 0-1-0.45-1-1v-0.82c0-0.55 0.45-1 1-1h3.57c2.32 0 4.19-1.88 4.19-4.19v-6.37c0-2.31-1.88-4.19-4.19-4.19z" opacity=".4"/>
 <path d="m19.64 9.5h-5.29c-1.73 0-2.36 0.63-2.36 2.38v7.73c0 1.76 0.62 2.38 2.36 2.38h5.29c1.73 0 2.36-0.63 2.36-2.38v-7.73c0-1.76-0.62-2.38-2.36-2.38zm-2.64 10.82c-0.61 0-1.1-0.49-1.1-1.1s0.49-1.1 1.1-1.1 1.1 0.49 1.1 1.1-0.49 1.1-1.1 1.1z"/>
 <path d="m18.1 19.22c0 0.61-0.49 1.1-1.1 1.1s-1.1-0.49-1.1-1.1 0.49-1.1 1.1-1.1 1.1 0.5 1.1 1.1z" opacity=".4"/>
</svg>
